X:160
T:untitled jig #5
M:6/8
L:1/8
Z: posted by Erica Mackenzie 5/99
Z: is this Rakes of Kildare
K:Am
|: D | EAA AGA | Bcd e2^f | g^fg ege | dBA G2D |\
EAA AGA | Bcd e2^f |g^fg edB| A3 A2 |
a| aea aea | aea b2a | g^fg ege | dBA G2a |\
aea aea | aea b2a | g^fg edB A3A2 :|
